Arcticons/scalable/apps/ccgt.svg

<svg viewBox="0 0 48 48" xmlns="http://www.w3.org/2000/svg">
 <defs>
  <style>.a{fill:none;stroke:#fff;stroke-linecap:round;stroke-linejoin:round;}</style>
 </defs>
 <path class="a" d="m32.6 19.3v8.8a2.9 2.9 0 0 1-2.9 2.9 2.88 2.88 0 0 1-2.1-0.9"/>
 <path class="a" d="m29.6 19.3a2.9 2.9 0 0 1 2.9 2.9v1.9a2.9 2.9 0 0 1-2.9 2.9 2.9 2.9 0 0 1-2.9-2.9v-1.9a2.9 2.9 0 0 1 2.9-2.9z"/>
 <path class="a" d="M36.8,16.9v8.8a1.54,1.54,0,0,0,1.5,1.5h.4"/>
 <line class="a" x1="35.2" x2="38.3" y1="19.3" y2="19.3"/>
 <path class="a" d="m15.5 25.6a3 3 0 0 1-2.6 1.5 2.9 2.9 0 0 1-2.9-2.9v-1.9a2.9 2.9 0 0 1 2.9-2.9 3.11 3.11 0 0 1 2.6 1.5"/>
 <path class="a" d="m24 25.6a3 3 0 0 1-2.6 1.5 2.9 2.9 0 0 1-2.9-2.9v-1.9a2.9 2.9 0 0 1 2.9-2.9 3.11 3.11 0 0 1 2.6 1.5"/>
 <path class="a" d="m40.5 42.5h-33a2 2 0 0 1-2-2v-33a2 2 0 0 1 2-2h33a2 2 0 0 1 2 2v33a2 2 0 0 1-2 2z"/>
</svg>

<svg xmlns="http://www.w3.org/2000/svg" viewBox="0 0 48 48"><defs><style>.a{fill:none;stroke:#fff;stroke-linecap:round;stroke-linejoin:round;}</style></defs><path class="a" d="M32.6,19.3v8.8A2.9,2.9,0,0,1,29.7,31h0a2.88,2.88,0,0,1-2.1-.9"/><path class="a" d="M29.6,19.3h0a2.9,2.9,0,0,1,2.9,2.9v1.9A2.9,2.9,0,0,1,29.6,27h0a2.9,2.9,0,0,1-2.9-2.9V22.2A2.9,2.9,0,0,1,29.6,19.3Z"/><path class="a" d="M36.8,16.9v8.8a1.54,1.54,0,0,0,1.5,1.5h.4"/><line class="a" x1="35.2" y1="19.3" x2="38.3" y2="19.3"/><path class="a" d="M15.5,25.6a3,3,0,0,1-2.6,1.5h0A2.9,2.9,0,0,1,10,24.2V22.3a2.9,2.9,0,0,1,2.9-2.9h0a3.11,3.11,0,0,1,2.6,1.5"/><path class="a" d="M24,25.6a3,3,0,0,1-2.6,1.5h0a2.9,2.9,0,0,1-2.9-2.9V22.3a2.9,2.9,0,0,1,2.9-2.9h0A3.11,3.11,0,0,1,24,20.9"/><path class="a" d="M40.5,42.5H7.5a2,2,0,0,1-2-2V7.5a2,2,0,0,1,2-2h33a2,2,0,0,1,2,2v33A2,2,0,0,1,40.5,42.5Z"/></svg>
